images/sprites.svg

<?xml version="1.0" encoding="utf-8"?>
<!-- Generated by IcoMoon.io -->
<!DOCTYPE svg PUBLIC "-//W3C//DTD SVG 1.1//EN" "http://www.w3.org/Graphics/SVG/1.1/DTD/svg11.dtd">
<svg version="1.1" xmlns="http://www.w3.org/2000/svg" xmlns:xlink="http://www.w3.org/1999/xlink" width="368" height="16" viewBox="0 0 368 16">
<g transform="translate(0 0)">
	<path d="M13.313 0h-10.625c-1.478 0-2.688 1.209-2.688 2.688v10.625c0 1.478 1.209 2.688 2.688 2.688h10.625c1.478 0 2.688-1.209 2.688-2.688v-10.625c0-1.478-1.209-2.688-2.688-2.688zM6 13h-2v-7h2v7zM5 5c-0.552 0-1-0.448-1-1s0.448-1 1-1 1 0.448 1 1-0.448 1-1 1zM13 13h-2v-4c0-0.552-0.448-1-1-1s-1 0.448-1 1v4h-2v-7h2v1.242c0.412-0.567 1.043-1.242 1.75-1.242 1.243 0 2.25 1.119 2.25 2.5v4.5z" fill="#ffffff" />
</g>
<g transform="translate(32 0)">
	<path d="M0 8.694c0 0.725 0.068 1.381 0.203 1.968 0.136 0.587 0.323 1.097 0.563 1.53 0.24 0.433 0.545 0.814 0.915 1.142 0.37 0.329 0.772 0.597 1.205 0.806 0.433 0.209 0.927 0.378 1.483 0.509 0.556 0.13 1.123 0.222 1.702 0.274 0.579 0.052 1.215 0.078 1.909 0.078 0.699 0 1.338-0.026 1.917-0.078 0.579-0.052 1.148-0.143 1.706-0.274 0.558-0.13 1.055-0.3 1.49-0.509 0.436-0.209 0.84-0.477 1.213-0.806 0.373-0.329 0.681-0.709 0.923-1.142 0.242-0.433 0.432-0.943 0.567-1.53 0.136-0.587 0.203-1.243 0.203-1.968 0-1.294-0.433-2.412-1.299-3.357 0.047-0.125 0.090-0.267 0.129-0.426 0.039-0.159 0.076-0.386 0.11-0.681 0.034-0.295 0.021-0.635-0.039-1.021-0.060-0.386-0.171-0.78-0.333-1.181l-0.117-0.023c-0.083-0.016-0.22-0.012-0.411 0.012s-0.412 0.070-0.665 0.141c-0.253 0.070-0.579 0.206-0.978 0.407-0.399 0.201-0.82 0.452-1.264 0.755-0.761-0.209-1.807-0.313-3.137-0.313-1.325 0-2.368 0.104-3.13 0.313-0.443-0.303-0.867-0.554-1.271-0.755-0.404-0.201-0.726-0.336-0.966-0.407-0.24-0.070-0.464-0.116-0.673-0.137-0.209-0.021-0.34-0.027-0.395-0.020-0.055 0.008-0.098 0.017-0.129 0.027-0.162 0.402-0.273 0.795-0.333 1.181-0.060 0.386-0.073 0.726-0.039 1.021 0.034 0.295 0.070 0.522 0.11 0.681 0.039 0.159 0.082 0.301 0.129 0.426-0.866 0.944-1.299 2.063-1.299 3.357zM1.964 10.658c0-0.751 0.342-1.44 1.025-2.066 0.203-0.188 0.441-0.33 0.712-0.426 0.271-0.097 0.578-0.151 0.919-0.164 0.342-0.013 0.669-0.010 0.982 0.008 0.313 0.018 0.699 0.043 1.158 0.074 0.459 0.031 0.855 0.047 1.189 0.047 0.334 0 0.73-0.016 1.189-0.047 0.459-0.031 0.845-0.056 1.158-0.074 0.313-0.018 0.64-0.021 0.982-0.008 0.342 0.013 0.648 0.068 0.919 0.164 0.271 0.097 0.508 0.239 0.712 0.426 0.683 0.616 1.025 1.304 1.025 2.066 0 0.449-0.056 0.846-0.168 1.193-0.112 0.347-0.256 0.638-0.43 0.872-0.175 0.235-0.417 0.434-0.728 0.599-0.31 0.164-0.613 0.291-0.908 0.38-0.295 0.089-0.673 0.158-1.134 0.207-0.462 0.050-0.874 0.080-1.236 0.090-0.363 0.010-0.823 0.016-1.381 0.016-0.558 0-1.018-0.005-1.381-0.016-0.362-0.010-0.775-0.040-1.236-0.090-0.462-0.050-0.84-0.119-1.134-0.207-0.295-0.089-0.597-0.215-0.908-0.38-0.31-0.164-0.553-0.364-0.728-0.599-0.175-0.235-0.318-0.525-0.43-0.872-0.112-0.347-0.168-0.745-0.168-1.193zM10 10.5c0-0.828 0.448-1.5 1-1.5s1 0.672 1 1.5c0 0.828-0.448 1.5-1 1.5-0.552 0-1-0.672-1-1.5zM4 10.5c0-0.828 0.448-1.5 1-1.5s1 0.672 1 1.5c0 0.828-0.448 1.5-1 1.5-0.552 0-1-0.672-1-1.5z" fill="#ffffff" />
</g>
<g transform="translate(64 0)">
	<path d="M13.313 0h-10.625c-1.478 0-2.688 1.209-2.688 2.688v10.625c0 1.478 1.209 2.688 2.688 2.688h10.625c1.478 0 2.688-1.209 2.688-2.688v-10.625c0-1.478-1.209-2.688-2.688-2.688zM15 12h-6v-3.688c0 0 1.099 0.016 1.688 0.625v1.063h2.413c-0.185-0.592-0.579-1.174-1.143-1.667-0.968-0.847-2.55-1.271-3.958-1.271v4.938h-7v-1.5c0-0.678 0.229-1.352 0.662-1.949 0.384-0.53 0.92-0.997 1.592-1.389 0.788-0.46 1.728-0.792 2.747-0.981v-2.18h2v2c2.297 0 3.463 0.412 4.747 1.161 0.672 0.392 1.207 0.859 1.592 1.389 0.433 0.597 0.662 1.271 0.662 1.949v1.5zM3.119 10c0.185-0.592 0.579-1.174 1.143-1.667 0.493-0.431 1.088-0.769 1.739-0.996v2.663h-2.881z" fill="#ffffff" />
</g>
<g transform="translate(96 0)">
	<path d="M13.344 0h-10.688c-1.461 0-2.656 1.195-2.656 2.656v10.688c0 1.461 1.195 2.656 2.656 2.656h10.688c1.461 0 2.656-1.195 2.656-2.656v-10.688c0-1.461-1.195-2.656-2.656-2.656zM5.122 7h5.756c0.109 0.313 0.169 0.65 0.169 1 0 1.68-1.367 3.047-3.047 3.047-1.68 0-3.047-1.367-3.047-3.047 0-0.35 0.060-0.687 0.169-1zM14 7.001v5.999c0 0.55-0.45 1-1 1h-10c-0.55 0-1-0.45-1-1v-6h1.564c-0.073 0.322-0.111 0.657-0.111 1 0 2.507 2.040 4.547 4.547 4.547 2.507 0 4.547-2.040 4.547-4.547 0-0.343-0.039-0.678-0.111-1l1.564 0.001zM14 3.5c0 0.275-0.225 0.5-0.5 0.5h-1c-0.275 0-0.5-0.225-0.5-0.5v-1c0-0.275 0.225-0.5 0.5-0.5h1c0.275 0 0.5 0.225 0.5 0.5v1z" fill="#ffffff" />
</g>
<g transform="translate(128 0)">
	<path d="M8 0c-4.418 0-8 3.582-8 8s3.582 8 8 8 8-3.582 8-8-3.582-8-8-8zM4 4h8c0.143 0 0.281 0.031 0.409 0.088l-4.409 5.143-4.409-5.143c0.127-0.058 0.266-0.088 0.409-0.088zM3 11v-6c0-0.021 0.001-0.042 0.002-0.063l2.932 3.421-2.9 2.9c-0.023-0.083-0.034-0.17-0.034-0.258zM12 12h-8c-0.088 0-0.175-0.012-0.258-0.034l2.846-2.846 1.413 1.648 1.413-1.648 2.846 2.846c-0.083 0.023-0.17 0.034-0.258 0.034zM13 11c0 0.088-0.012 0.175-0.034 0.258l-2.9-2.9 2.932-3.421c0.001 0.021 0.002 0.042 0.002 0.063v6z" fill="#ffffff" />
</g>
<g transform="translate(160 0)">
	<path d="M8 0l-8 8h5v8l6 0v-8h5z" fill="#ffffff" />
</g>
<g transform="translate(192 0)">
	<path d="M16 8l-8-8v5h-8l-0 6h8v5z" fill="#ffffff" />
</g>
<g transform="translate(224 0)">
	<path d="M0 8l8 8v-5h8l0-6h-8v-5z" fill="#ffffff" />
</g>
<g transform="translate(256 0)">
	<path d="M16 10v6h-16v-6h2v4h12v-4zM3 11h10v2h-10zM3.237 8.835l0.433-1.953 9.763 2.164-0.433 1.953zM4.37 4.821l0.845-1.813 9.063 4.226-0.845 1.813zM15.496 5.648l-1.218 1.587-7.934-6.088 0.88-1.147h0.91z" fill="#ffffff" />
</g>
<g transform="translate(288 0)">
	<path d="M13.334 0h-10.667c-1.467 0-2.667 1.2-2.667 2.667v10.666c0 1.468 1.2 2.667 2.667 2.667h10.667c1.467 0 2.666-1.199 2.666-2.667v-10.666c-0-1.467-1.199-2.667-2.666-2.667zM11.433 12.886c-0.471 0.222-0.899 0.378-1.281 0.468-0.383 0.089-0.796 0.134-1.241 0.134-0.505 0-0.803-0.063-1.19-0.19-0.388-0.128-0.719-0.31-0.992-0.545-0.274-0.236-0.464-0.487-0.57-0.753-0.106-0.266-0.159-0.651-0.159-1.156v-3.872h-1.5v-1.564c0.433-0.141 0.936-0.343 1.245-0.605 0.31-0.264 0.558-0.579 0.745-0.948 0.188-0.368 0.316-0.838 0.387-1.407h1.57v2.554h2.553v1.971h-2.553v2.831c0 0.641-0.008 1.010 0.060 1.191 0.067 0.181 0.236 0.368 0.42 0.477 0.245 0.146 0.524 0.22 0.838 0.22 0.559 0 1.115-0.182 1.668-0.545v1.741z" fill="#ffffff" />
</g>
<g transform="translate(320 0)">
	<path d="M3 1v12h12v-12h-12zM14 12h-10v-10h10v10zM2 14v-10l-1-1v12h12l-1-1zM6.707 10.707l3-3 2.293 2.293v-6h-6l2.293 2.293-3 3z" fill="#ffffff" />
</g>
<g transform="translate(352 0)">
	<path d="M15 4c0.552 0 1-0.448 1-1v-2h-2v-1h-13c-0.55 0-1 0.45-1 1v14c0 0.55 0.45 1 1 1h13v-4h1c0.552 0 1-0.448 1-1v-2h-2v-1h1c0.552 0 1-0.448 1-1v-2h-2v-1h1zM9 4.005c1.102 0 1.995 0.893 1.995 1.995s-0.893 1.995-1.995 1.995c-1.102 0-1.995-0.893-1.995-1.995s0.893-1.995 1.995-1.995zM4 15h-1v-14h1v14zM12 12h-6v-1c0-1.105 0.895-2 2-2v0h2c1.105 0 2 0.895 2 2v1z" fill="#ffffff" />
</g>
</svg>

<?xml version="1.0" encoding="utf-8"?>
<!-- Generator: Adobe Illustrator 16.0.0, SVG Export Plug-In . SVG Version: 6.00 Build 0)  -->
<!DOCTYPE svg PUBLIC "-//W3C//DTD SVG 1.1//EN" "http://www.w3.org/Graphics/SVG/1.1/DTD/svg11.dtd">
<svg version="1.1" id="Layer_1" xmlns="http://www.w3.org/2000/svg" xmlns:xlink="http://www.w3.org/1999/xlink" x="0px" y="0px"
	 width="368px" height="32px" viewBox="0 0 368 32" enable-background="new 0 0 368 32" xml:space="preserve">
<g transform="translate(0 0)">
	<path fill="#FFFFFF" d="M13.313,0H2.688C1.21,0,0,1.209,0,2.688v10.625c0,1.479,1.209,2.688,2.688,2.688h10.625
		c1.478,0,2.688-1.209,2.688-2.688V2.688C16.001,1.21,14.792,0,13.313,0z M6,13H4V6h2V13z M5,5C4.448,5,4,4.552,4,4s0.448-1,1-1
		s1,0.448,1,1S5.552,5,5,5z M13,13h-2V9c0-0.552-0.448-1-1-1S9,8.448,9,9v4H7V6h2v1.242C9.412,6.675,10.043,6,10.75,6
		C11.993,6,13,7.119,13,8.5V13z"/>
</g>
<g transform="translate(32 0)">
	<path fill="#FFFFFF" d="M0,8.693c0,0.726,0.068,1.382,0.203,1.969c0.136,0.587,0.323,1.097,0.563,1.529
		c0.24,0.434,0.545,0.814,0.915,1.143c0.37,0.329,0.772,0.598,1.205,0.807c0.433,0.209,0.927,0.377,1.483,0.508
		c0.556,0.131,1.123,0.223,1.702,0.274c0.579,0.052,1.215,0.078,1.909,0.078c0.699,0,1.338-0.026,1.917-0.078
		s1.148-0.143,1.706-0.274c0.558-0.129,1.055-0.299,1.49-0.508c0.436-0.209,0.84-0.478,1.213-0.807s0.681-0.709,0.923-1.143
		c0.242-0.433,0.432-0.942,0.567-1.529c0.136-0.587,0.203-1.243,0.203-1.969c0-1.293-0.433-2.411-1.299-3.356
		c0.047-0.125,0.09-0.267,0.129-0.426c0.039-0.159,0.076-0.386,0.11-0.681S14.96,3.595,14.9,3.209s-0.171-0.78-0.333-1.181
		L14.45,2.005c-0.083-0.016-0.22-0.012-0.411,0.012s-0.412,0.07-0.665,0.141c-0.253,0.07-0.579,0.206-0.978,0.407
		c-0.399,0.201-0.82,0.452-1.264,0.755c-0.761-0.209-1.807-0.313-3.137-0.313c-1.325,0-2.368,0.104-3.13,0.313
		C4.422,3.017,3.998,2.766,3.594,2.565C3.19,2.364,2.868,2.229,2.628,2.158c-0.24-0.07-0.464-0.116-0.673-0.137
		s-0.34-0.027-0.395-0.02C1.505,2.009,1.462,2.018,1.431,2.028C1.269,2.43,1.158,2.823,1.098,3.209S1.025,3.935,1.059,4.23
		c0.034,0.295,0.07,0.522,0.11,0.681C1.208,5.07,1.251,5.212,1.298,5.337C0.432,6.281-0.001,7.4,0,8.693L0,8.693z M1.964,10.658
		c0-0.751,0.342-1.44,1.025-2.066c0.203-0.188,0.441-0.33,0.712-0.426C3.972,8.069,4.279,8.015,4.62,8.002
		c0.342-0.013,0.669-0.01,0.982,0.008C5.915,8.028,6.301,8.053,6.76,8.084c0.459,0.031,0.855,0.047,1.189,0.047
		s0.73-0.016,1.189-0.047s0.845-0.056,1.158-0.074c0.313-0.018,0.64-0.021,0.982-0.008c0.342,0.013,0.648,0.068,0.919,0.164
		c0.271,0.097,0.508,0.239,0.712,0.426c0.683,0.616,1.025,1.305,1.025,2.066c0,0.449-0.056,0.846-0.168,1.193
		c-0.112,0.347-0.256,0.638-0.43,0.871c-0.175,0.235-0.417,0.435-0.728,0.6c-0.31,0.164-0.613,0.291-0.908,0.38
		c-0.295,0.089-0.673,0.157-1.134,0.207c-0.462,0.05-0.874,0.08-1.236,0.09c-0.363,0.01-0.823,0.017-1.381,0.017
		c-0.558,0-1.018-0.006-1.381-0.017c-0.362-0.01-0.775-0.04-1.236-0.09c-0.462-0.05-0.84-0.119-1.134-0.207
		c-0.295-0.089-0.597-0.216-0.908-0.38c-0.31-0.164-0.553-0.364-0.728-0.6c-0.175-0.234-0.318-0.524-0.43-0.871
		C2.02,11.504,1.964,11.105,1.964,10.658z M10,10.5C10,9.672,10.448,9,11,9s1,0.672,1,1.5S11.552,12,11,12S10,11.328,10,10.5z
		 M4,10.5C4,9.672,4.448,9,5,9s1,0.672,1,1.5S5.552,12,5,12S4,11.328,4,10.5z"/>
</g>
<g transform="translate(64 0)">
	<path fill="#FFFFFF" d="M13.313,0H2.688C1.21,0,0,1.209,0,2.688v10.625c0,1.479,1.209,2.688,2.688,2.688h10.625
		c1.478,0,2.688-1.209,2.688-2.688V2.688C16.001,1.21,14.792,0,13.313,0z M15,12H9V8.312c0,0,1.099,0.016,1.688,0.625V10h2.413
		c-0.185-0.592-0.579-1.174-1.143-1.667C10.99,7.486,9.408,7.062,8,7.062V12H1v-1.5c0-0.678,0.229-1.352,0.662-1.949
		c0.384-0.53,0.92-0.997,1.592-1.389c0.788-0.46,1.728-0.792,2.747-0.981v-2.18h2v2c2.297,0,3.463,0.412,4.747,1.161
		c0.672,0.392,1.207,0.859,1.592,1.389c0.433,0.598,0.662,1.271,0.662,1.949V12H15z M3.119,10c0.185-0.592,0.579-1.174,1.143-1.667
		C4.755,7.902,5.35,7.564,6.001,7.337V10H3.119L3.119,10z"/>
</g>
<g transform="translate(96 0)">
	<path fill="#FFFFFF" d="M13.344,0H2.656C1.195,0,0,1.195,0,2.656v10.688C0,14.805,1.195,16,2.656,16h10.688
		C14.805,16,16,14.805,16,13.344V2.656C16,1.195,14.805,0,13.344,0z M5.122,7h5.756c0.109,0.313,0.169,0.65,0.169,1
		c0,1.68-1.367,3.047-3.047,3.047S4.953,9.68,4.953,8C4.953,7.65,5.013,7.313,5.122,7z M14,7.001V13c0,0.55-0.45,1-1,1H3
		c-0.55,0-1-0.45-1-1V7h1.564C3.491,7.322,3.453,7.657,3.453,8c0,2.507,2.04,4.547,4.547,4.547s4.547-2.04,4.547-4.547
		c0-0.343-0.039-0.678-0.111-1L14,7.001z M14,3.5C14,3.775,13.775,4,13.5,4h-1C12.225,4,12,3.775,12,3.5v-1
		C12,2.225,12.225,2,12.5,2h1C13.775,2,14,2.225,14,2.5V3.5z"/>
</g>
<g transform="translate(128 0)">
	<path fill="#FFFFFF" d="M8,0C3.582,0,0,3.582,0,8s3.582,8,8,8s8-3.582,8-8S12.418,0,8,0z M4,4h8c0.143,0,0.281,0.031,0.409,0.088
		L8,9.23L3.591,4.088C3.718,4.03,3.857,4,4,4z M3,11V5c0-0.021,0.001-0.042,0.002-0.063l2.932,3.421l-2.9,2.9
		C3.011,11.175,3,11.088,3,11z M12,12H4c-0.088,0-0.175-0.012-0.258-0.034L6.588,9.12l1.413,1.647L9.414,9.12l2.846,2.846
		C12.177,11.989,12.09,12,12.002,12H12z M13,11c0,0.088-0.012,0.175-0.034,0.258l-2.9-2.9l2.932-3.421C12.999,4.958,13,4.979,13,5
		V11z"/>
</g>
<g transform="translate(160 0)">
	<path fill="#FFFFFF" d="M8,0L0,8h5v8h6V8h5L8,0z"/>
</g>
<g transform="translate(192 0)">
	<path fill="#FFFFFF" d="M16,8L8,0v5H0v6h8v5L16,8z"/>
</g>
<g transform="translate(224 0)">
	<path fill="#FFFFFF" d="M0,8l8,8v-5h8V5H8V0L0,8z"/>
</g>
<g transform="translate(256 0)">
	<path fill="#FFFFFF" d="M16,10v6H0v-6h2v4h12v-4H16z M3,11h10v2H3V11z M3.236,8.835L3.67,6.882l9.764,2.164L13,10.999L3.236,8.835z
		 M4.37,4.821l0.845-1.813l9.063,4.226l-0.844,1.813L4.37,4.821z M15.496,5.648l-1.219,1.587L6.344,1.147L7.225,0h0.909
		L15.496,5.648z"/>
</g>
<g transform="translate(288 0)">
	<path fill="#FFFFFF" d="M13.334,0H2.667C1.2,0,0,1.2,0,2.667v10.666C0,14.801,1.2,16,2.667,16h10.667
		C14.801,16,16,14.801,16,13.333V2.667C16,1.2,14.801,0,13.334,0z M11.434,12.886c-0.472,0.222-0.899,0.378-1.281,0.468
		c-0.383,0.09-0.797,0.135-1.241,0.135c-0.505,0-0.804-0.063-1.19-0.19c-0.388-0.128-0.719-0.31-0.992-0.545S6.266,12.266,6.159,12
		S6,11.35,6,10.844V6.972H4.5V5.408c0.434-0.141,0.936-0.343,1.245-0.605c0.31-0.264,0.558-0.579,0.745-0.948
		c0.188-0.368,0.316-0.838,0.387-1.407h1.57v2.554H11v1.971H8.447v2.832c0,0.641-0.008,1.01,0.06,1.19s0.236,0.368,0.42,0.478
		c0.245,0.146,0.524,0.219,0.839,0.219c0.559,0,1.114-0.182,1.668-0.545v1.742V12.886z"/>
</g>
<g transform="translate(320 0)">
	<path fill="#FFFFFF" d="M3,1v12h12V1H3z M14,12H4V2h10V12z M2,14V4L1,3v12h12l-1-1H2z M6.707,10.707l3-3L12,10V4H6l2.293,2.293
		l-3,3L6.707,10.707z"/>
</g>
<g transform="translate(352 0)">
	<path fill="#FFFFFF" d="M15,4c0.552,0,1-0.448,1-1V1h-2V0H1C0.45,0,0,0.45,0,1v14c0,0.55,0.45,1,1,1h13v-4h1c0.552,0,1-0.448,1-1V9
		h-2V8h1c0.552,0,1-0.448,1-1V5h-2V4H15z M9,4.005c1.102,0,1.995,0.893,1.995,1.995S10.102,7.995,9,7.995S7.005,7.102,7.005,6
		S7.898,4.005,9,4.005z M4,15H3V1h1V15z M12,12H6v-1c0-1.105,0.895-2,2-2l0,0h2c1.105,0,2,0.895,2,2V12z"/>
</g>
<g>
	<path fill="#FFFFFF" d="M4.586,19.09c0.465,0,0.885,0.04,1.269,0.123c0.381,0.081,0.707,0.216,0.982,0.401
		c0.271,0.186,0.483,0.432,0.635,0.742c0.148,0.306,0.223,0.688,0.223,1.141c0,0.49-0.111,0.899-0.333,1.226
		c-0.224,0.327-0.553,0.595-0.993,0.803c0.599,0.172,1.042,0.476,1.336,0.906c0.295,0.434,0.44,0.953,0.44,1.561
		c0,0.494-0.095,0.919-0.283,1.276c-0.19,0.361-0.45,0.654-0.77,0.881c-0.322,0.228-0.692,0.396-1.106,0.504
		c-0.41,0.109-0.835,0.164-1.271,0.164H0V19.09H4.586z M4.309,23.02c0.379,0,0.694-0.09,0.943-0.272
		c0.246-0.18,0.366-0.478,0.366-0.885c0-0.227-0.04-0.413-0.12-0.559c-0.083-0.146-0.192-0.259-0.33-0.339
		c-0.137-0.082-0.292-0.14-0.471-0.17c-0.177-0.035-0.362-0.049-0.551-0.049H2.142v2.273H4.309z M4.428,27.16
		c0.211,0,0.412-0.019,0.601-0.061c0.191-0.042,0.361-0.108,0.504-0.207c0.143-0.094,0.262-0.224,0.348-0.388
		c0.086-0.163,0.128-0.375,0.128-0.631c0-0.501-0.141-0.856-0.421-1.073c-0.281-0.213-0.656-0.319-1.117-0.319H2.142v2.679H4.428z"
		/>
	<path fill="#FFFFFF" d="M11.199,27.128c0.29,0.283,0.708,0.425,1.251,0.425c0.39,0,0.728-0.098,1.01-0.295
		c0.28-0.196,0.451-0.406,0.517-0.624h1.704c-0.274,0.848-0.689,1.453-1.256,1.817C13.864,28.817,13.181,29,12.385,29
		c-0.555,0-1.054-0.091-1.502-0.268c-0.448-0.179-0.823-0.43-1.138-0.757C9.438,27.646,9.2,27.258,9.03,26.802
		c-0.168-0.454-0.252-0.957-0.252-1.502c0-0.526,0.088-1.019,0.26-1.473c0.176-0.457,0.418-0.851,0.738-1.181
		c0.32-0.332,0.7-0.594,1.141-0.785c0.442-0.19,0.93-0.287,1.469-0.287c0.596,0,1.118,0.115,1.565,0.349
		c0.446,0.23,0.812,0.543,1.099,0.934c0.287,0.39,0.491,0.836,0.619,1.337c0.127,0.499,0.171,1.021,0.135,1.567H10.72
		C10.72,26.318,10.908,26.845,11.199,27.128z M13.421,23.427c-0.229-0.254-0.619-0.392-1.094-0.392c-0.309,0-0.565,0.053-0.77,0.158
		c-0.2,0.104-0.364,0.234-0.49,0.389c-0.125,0.155-0.21,0.32-0.259,0.495c-0.05,0.172-0.08,0.327-0.088,0.465h3.147
		C13.821,24.049,13.652,23.684,13.421,23.427z"/>
	<rect x="10.324" y="19.742" fill="#FFFFFF" width="3.943" height="0.96"/>
</g>
<g>
	<path fill="#FFFFFF" d="M39.92,16.114c-4.375,0-7.921,3.546-7.921,7.922c0,4.374,3.546,7.921,7.921,7.921s7.921-3.547,7.921-7.921
		C47.842,19.66,44.295,16.114,39.92,16.114z M39.92,30.656c-3.651,0-6.62-2.971-6.62-6.62c0-3.65,2.969-6.62,6.62-6.62
		s6.62,2.97,6.62,6.62C46.541,27.686,43.571,30.656,39.92,30.656z"/>
	<path fill="#FFFFFF" d="M44.814,22.489c0-0.007-0.002-0.014-0.003-0.02c-0.002-0.012-0.004-0.023-0.007-0.035
		c-0.002-0.008-0.005-0.013-0.007-0.02c-0.003-0.011-0.006-0.021-0.011-0.03c-0.002-0.008-0.006-0.015-0.008-0.021
		c-0.005-0.01-0.01-0.019-0.015-0.027c-0.003-0.007-0.008-0.014-0.012-0.02c-0.005-0.009-0.011-0.018-0.017-0.025
		c-0.005-0.007-0.01-0.014-0.015-0.02c-0.007-0.007-0.014-0.015-0.021-0.022c-0.005-0.005-0.011-0.011-0.017-0.016
		c-0.007-0.007-0.016-0.014-0.024-0.021c-0.006-0.005-0.012-0.01-0.019-0.014c-0.002-0.002-0.004-0.005-0.007-0.007l-4.477-2.984
		c-0.141-0.095-0.326-0.095-0.467,0l-4.477,2.984c-0.002,0.002-0.004,0.005-0.007,0.007c-0.006,0.004-0.013,0.009-0.019,0.014
		c-0.008,0.007-0.016,0.014-0.024,0.021c-0.006,0.005-0.011,0.011-0.017,0.016c-0.007,0.008-0.015,0.016-0.021,0.022
		c-0.005,0.006-0.01,0.013-0.015,0.02c-0.005,0.008-0.011,0.017-0.017,0.025c-0.004,0.006-0.008,0.013-0.012,0.02
		c-0.005,0.009-0.01,0.018-0.014,0.027c-0.003,0.007-0.006,0.014-0.009,0.021c-0.004,0.01-0.007,0.02-0.011,0.03
		c-0.002,0.007-0.005,0.012-0.007,0.02c-0.003,0.012-0.005,0.023-0.007,0.035c-0.001,0.006-0.003,0.013-0.003,0.02
		c-0.002,0.018-0.004,0.035-0.004,0.054v2.985c0,0.019,0.001,0.036,0.004,0.055c0,0.006,0.002,0.012,0.003,0.019
		c0.002,0.012,0.004,0.023,0.007,0.035c0.002,0.007,0.005,0.014,0.007,0.021c0.003,0.01,0.007,0.02,0.011,0.03
		c0.003,0.008,0.006,0.015,0.009,0.021c0.004,0.01,0.009,0.019,0.014,0.028c0.004,0.006,0.008,0.013,0.012,0.02
		c0.006,0.008,0.012,0.017,0.017,0.024s0.01,0.014,0.015,0.02c0.006,0.008,0.014,0.016,0.021,0.022
		c0.005,0.006,0.011,0.011,0.017,0.017c0.008,0.007,0.016,0.013,0.024,0.02c0.006,0.005,0.013,0.01,0.019,0.015
		c0.002,0.001,0.004,0.004,0.007,0.006l4.477,2.984c0.071,0.047,0.152,0.07,0.233,0.07c0.082,0,0.163-0.023,0.233-0.07l4.477-2.984
		c0.002-0.002,0.004-0.005,0.007-0.006c0.007-0.005,0.013-0.01,0.019-0.015c0.008-0.007,0.017-0.013,0.024-0.02
		c0.006-0.006,0.011-0.011,0.017-0.017c0.007-0.007,0.015-0.015,0.021-0.022c0.005-0.006,0.01-0.012,0.015-0.02
		c0.006-0.008,0.012-0.017,0.017-0.024c0.004-0.007,0.009-0.014,0.012-0.02c0.005-0.01,0.01-0.019,0.015-0.028
		c0.002-0.006,0.006-0.013,0.008-0.021c0.004-0.011,0.007-0.021,0.011-0.03c0.002-0.007,0.005-0.014,0.007-0.021
		c0.003-0.012,0.005-0.023,0.007-0.035c0.001-0.007,0.002-0.013,0.003-0.019c0.002-0.019,0.004-0.036,0.004-0.055v-2.985
		C44.818,22.524,44.817,22.507,44.814,22.489z M40.341,20.346l3.298,2.198l-1.474,0.985l-1.825-1.221V20.346z M39.5,20.346v1.963
		l-1.825,1.221l-1.474-0.985L39.5,20.346z M35.864,23.332l1.053,0.704l-1.053,0.704V23.332z M39.5,27.726l-3.298-2.198l1.474-0.984
		l1.825,1.22V27.726z M39.92,25.031l-1.489-0.995l1.489-0.996l1.489,0.996L39.92,25.031z M40.341,27.726v-1.963l1.825-1.22
		l1.474,0.984L40.341,27.726z M43.977,24.74l-1.053-0.704l1.053-0.704V24.74z"/>
</g>
</svg>
